images/sponsor-logos/aiga-vt.svg

<?xml version="1.0" encoding="UTF-8" standalone="no"?>
<svg width="149px" height="44px" viewBox="0 0 149 44" version="1.1" xmlns="http://www.w3.org/2000/svg" xmlns:xlink="http://www.w3.org/1999/xlink" xmlns:sketch="http://www.bohemiancoding.com/sketch/ns">
    <!-- Generator: Sketch 3.3.1 (12002) - http://www.bohemiancoding.com/sketch -->
    <title>AIGAvt-BLACK</title>
    <desc>Created with Sketch.</desc>
    <defs>
        <path id="path-1" d="M0,0.84 L148.8225,0.84 L148.8225,43.675 L0,43.675"></path>
    </defs>
    <g id="Page-1" stroke="none" stroke-width="1" fill="none" fill-rule="evenodd" sketch:type="MSPage">
        <g id="AIGAvt-BLACK" sketch:type="MSLayerGroup">
            <g id="Page-1">
                <g id="Group-3">
                    <mask id="mask-2" sketch:name="Clip 2" fill="white">
                        <use xlink:href="#path-1"></use>
                    </mask>
                    <g id="Clip-2"></g>
                    <path d="M40.84125,27.635 L35.6275,27.635 C35.6275,27.635 35.55125,27.62 35.6075,27.59125 C35.6675,27.56 37.345,27.02375 37.475,26.98375 C37.72875,26.8975 37.7975,26.8425 37.81125,26.44 C37.8175,26.05375 37.92375,23.7825 37.92375,23.64625 C37.92375,23.50375 37.9675,23.22625 37.59625,23.19625 C37.4225,23.18125 36.85,23.1325 36.25125,23.11875 C35.53625,23.0975 34.79375,23.11375 34.6675,23.11875 C34.265,23.12625 34.165,23.15125 33.9375,23.32625 C33.75875,23.465 31.2525,26.56625 31.1575,26.69625 C31.0575,26.8425 31.08375,26.995 31.345,27.08 C31.61875,27.16125 33.20875,27.4875 33.5725,27.56 C33.625,27.5725 33.61375,27.635 33.54125,27.635 L28.63,27.635 C28.5775,27.635 28.58375,27.5775 28.6225,27.56 C28.65375,27.5375 29.3075,27.3025 29.64,27.0425 C29.81125,26.935 39.1275,16.77875 39.29,16.625 C39.34,16.58375 39.39125,16.5925 39.41125,16.635 C39.4525,16.715 39.31125,26.35375 39.315,26.5075 C39.32875,26.67375 39.34,26.87625 39.60625,27.005 C39.8575,27.12125 40.785,27.52125 40.9,27.56625 C40.95375,27.585 40.92,27.635 40.84125,27.635 M28.02875,26.97375 C27.88875,27.02375 26.1975,27.675 24.5525,27.7225 C20.34875,27.83125 18.81125,24.895 19.53125,22.21875 C19.90875,20.81375 20.83375,19.4925 22.005,18.56875 C22.6775,18.04375 24.66875,16.81 27.265,16.81 C27.755,16.81 29.0125,16.87 29.9275,17.1125 C30.3775,17.23 30.31,17.4775 30.26,17.65875 C30.23375,17.74875 29.245,20.72375 29.21625,20.79375 C29.1725,20.9075 29.08125,20.91 29.08125,20.78875 C29.0775,20.72625 29.20125,18.08625 29.19625,17.9775 C29.1925,17.70125 29.1925,17.53 28.88375,17.42875 C28.45125,17.2925 26.3825,17.1125 24.8625,17.82 C22.30375,19.01375 20.8175,21.765 21.1225,23.96 C21.36625,25.7675 22.8025,27.2425 25.08875,27.3025 C25.81375,27.32125 26.3375,27.2175 26.49125,27.16625 C26.72375,27.09875 26.7525,27.0325 26.805,26.90125 C26.8525,26.765 27.235,25.14875 27.2525,25.0825 C27.265,25.0125 27.365,24.78875 27.12875,24.72125 C26.9,24.66 24.82375,24.09875 24.71625,24.07 C24.6075,24.0425 24.655,23.9875 24.7375,23.9875 L28.63,23.9875 C28.7875,23.9875 29.19625,23.9475 29.08875,24.33625 C28.975,24.7275 28.38,26.5875 28.33375,26.7175 C28.28375,26.85 28.175,26.92125 28.02875,26.97375 M18.235,17.52125 C17.98125,17.63375 17.89,17.77125 17.8225,17.97 C17.775,18.13 15.805,26.43375 15.77375,26.5775 C15.73875,26.76625 15.72875,26.92625 15.9475,27.0125 C16.1725,27.1025 17.2925,27.49875 17.38125,27.535 C17.475,27.5725 17.45,27.635 17.3525,27.635 L12.52375,27.635 C12.43,27.635 12.38625,27.605 12.46875,27.56625 C12.57,27.52125 13.63,27.13875 13.73625,27.09875 C13.84875,27.055 14.1225,26.95375 14.19875,26.71 C14.25375,26.53 16.28125,18.18125 16.315,18.02125 C16.36375,17.815 16.34,17.60875 16.1025,17.52625 C15.975,17.4775 14.73375,17.05375 14.69,17.03875 C14.62,17.0175 14.62,16.97 14.68375,16.97 L19.7525,16.97 C19.80875,16.97 19.86125,17.01 19.78625,17.03125 C19.7125,17.05 18.88375,17.29625 18.79375,17.32125 C18.6925,17.3525 18.38875,17.45125 18.235,17.52125 M0,0.84 L0,27.56375 C0.0275,27.555 0.04625,27.54625 0.055,27.54625 C0.08875,27.5275 0.74,27.3025 1.075,27.0425 C1.245,26.935 10.56,16.77875 10.7175,16.625 C10.77,16.58375 10.825,16.5925 10.85,16.635 C10.8875,16.715 10.745,26.35375 10.74875,26.5075 C10.76125,26.67375 10.775,26.87625 11.04125,27.005 C11.28875,27.12125 12.2175,27.52125 12.3375,27.56625 C12.385,27.585 12.3525,27.635 12.27375,27.635 L7.06125,27.635 C7.06125,27.635 6.98375,27.62 7.04,27.59125 C7.1,27.56 8.77875,27.02375 8.90625,26.98375 C9.16,26.8975 9.2325,26.8425 9.24375,26.44 C9.25125,26.05375 9.3575,23.7825 9.3575,23.64625 C9.3575,23.50375 9.40125,23.22625 9.02625,23.19625 C8.85375,23.18125 8.28125,23.1325 7.6825,23.11875 C6.97,23.0975 6.22625,23.11375 6.10125,23.11875 C5.69625,23.12625 5.59875,23.15125 5.36875,23.32625 C5.19,23.465 2.6875,26.56625 2.59,26.69625 C2.49,26.8425 2.52,26.995 2.78125,27.08 C3.05375,27.16125 4.64,27.4875 5.00375,27.56 C5.05625,27.5725 5.0425,27.635 4.97,27.635 L0.06375,27.635 C0.055,27.635 0.03,27.635 0,27.63875 L0,43.75125 L42.90875,43.75125 L42.90875,0.84 L0,0.84" id="Fill-1" fill="#1A1918" sketch:type="MSShapeGroup" mask="url(#mask-2)"></path>
                </g>
                <path d="M6.4075,22.7 C6.4075,22.7 8.59625,22.70625 8.9525,22.70625 C9.31,22.70625 9.40125,22.58 9.40125,22.36375 C9.40125,22.21875 9.44375,19.5675 9.44375,19.26625 C9.44375,18.97625 9.2725,18.965 9.08125,19.1825 C8.98375,19.29375 6.32125,22.1575 6.1725,22.3175 C6.03,22.47875 6.01625,22.695 6.4075,22.7" id="Fill-4" fill="#1A1918" sketch:type="MSShapeGroup"></path>
                <path d="M37.64875,19.1825 C37.5475,19.295 34.88625,22.15875 34.74,22.31875 C34.595,22.48 34.58375,22.69625 34.97375,22.7 C34.97375,22.7 37.16,22.70625 37.5175,22.70625 C37.87,22.70625 37.9675,22.58125 37.9675,22.365 C37.9675,22.22 38.00625,19.56875 38.00625,19.26625 C38.00625,18.9775 37.8425,18.965 37.64875,19.1825" id="Fill-5" fill="#1A1918" sketch:type="MSShapeGroup"></path>
                <path d="M61.90375,32.12 C61.815,32.3275 61.72625,32.4175 61.37,32.4175 C61.07125,32.4175 60.95375,32.29875 60.89375,32.12 L54.38625,13.72625 C53.01875,13.72625 52.75125,13.755 52.45375,13.755 C52.24625,13.755 52.0075,13.5475 52.0075,13.22 C52.0075,12.92375 52.24625,12.715 52.45375,12.715 C52.75125,12.715 53.0475,12.865 55.48625,12.865 L55.87125,12.865 C58.27875,12.865 58.575,12.715 58.87375,12.715 C59.11,12.715 59.31875,12.92375 59.31875,13.22 C59.31875,13.5475 59.11,13.755 58.87375,13.755 C58.575,13.755 58.27875,13.72625 56.91125,13.72625 L62.0525,28.52375 L67.46125,13.72625 L67.2825,13.72625 C65.82625,13.72625 65.7375,13.755 65.44125,13.755 C65.2325,13.755 64.995,13.5475 64.995,13.22 C64.995,12.92375 65.2325,12.715 65.44125,12.715 C65.7375,12.715 65.85625,12.865 67.9375,12.865 L68.085,12.865 C70.195,12.865 70.285,12.715 70.58125,12.715 C70.81875,12.715 71.02625,12.92375 71.02625,13.22 C71.02625,13.5475 70.81875,13.755 70.58125,13.755 C70.285,13.755 70.195,13.72625 68.8575,13.72625 L68.64875,13.72625 L61.90375,32.12" id="Fill-6" fill="#1A1918" sketch:type="MSShapeGroup"></path>
                <path d="M76.5,23.91875 C76.59,23.65125 76.6775,23.235 76.6775,22.9075 C76.6775,21.4225 75.6675,20.71 74.42,20.71 C72.99375,20.71 71.68625,21.30375 71.24,23.91875 L76.5,23.91875 L76.5,23.91875 Z M71.0625,26.05875 C71.0625,29.6225 72.34,31.3775 74.48,31.3775 C76.2925,31.3775 77.48125,30.48625 78.045,28.88125 C78.135,28.67375 78.2525,28.40625 78.52125,28.40625 C78.84875,28.40625 78.9975,28.64375 78.9975,28.85125 C78.9975,29 78.93625,29.2675 78.8775,29.41375 C77.89625,31.70375 75.845,32.3875 74.12125,32.3875 C71.5375,32.3875 68.68375,30.03875 68.68375,26.05875 C68.68375,22.28375 71.32875,19.75875 74.15375,19.75875 C77.3025,19.75875 79.175,22.10625 78.8775,24.95875 L71.09125,24.95875 C71.0625,25.28625 71.0625,25.67 71.0625,26.05875 L71.0625,26.05875 Z" id="Fill-7" fill="#1A1918" sketch:type="MSShapeGroup"></path>
                <path d="M88.17625,19.75875 C89.54375,19.75875 90.37625,20.53125 90.37625,21.4825 C90.37625,22.34375 89.8425,23.02625 89.03875,23.02625 C88.29625,23.02625 87.70375,22.43375 87.70375,21.69 C87.70375,21.24375 87.85,21.00625 88.06,20.79875 C86.75125,20.41125 84.84875,21.8975 84.84875,25.85 L84.84875,30.96125 C86.2775,30.96125 86.45375,30.93 86.75125,30.93 C86.95875,30.93 87.1975,31.1375 87.1975,31.46625 C87.1975,31.79375 86.95875,31.97125 86.75125,31.97125 C86.45375,31.97125 86.2775,31.8225 83.83875,31.8225 L83.72125,31.8225 C81.2825,31.8225 81.13625,31.97125 80.8375,31.97125 C80.59875,31.97125 80.39125,31.79375 80.39125,31.46625 C80.39125,31.1375 80.59875,30.93 80.8375,30.93 C81.13625,30.93 81.2825,30.96125 82.74,30.96125 L82.74,21.155 C81.2825,21.155 81.13625,21.24375 80.8375,21.24375 C80.59875,21.24375 80.39125,21.03625 80.39125,20.70875 C80.39125,20.3825 80.59875,20.20375 80.8375,20.20375 C81.13625,20.20375 81.2825,20.23375 82.74,20.23375 C83.21625,20.23375 84.1075,20.115 84.4025,20.115 C84.6125,20.115 84.84875,20.3225 84.84875,20.65 L84.84875,22.285 C85.445,20.67875 86.75125,19.75875 88.17625,19.75875" id="Fill-8" fill="#1A1918" sketch:type="MSShapeGroup"></path>
                <path d="M105.36,30.93125 C105.59625,30.93125 105.80625,31.13875 105.80625,31.46625 C105.80625,31.79375 105.59625,31.97125 105.36,31.97125 C105.06125,31.97125 105.09125,31.8225 102.65375,31.8225 L102.5375,31.8225 C100.13,31.8225 100.13,31.97125 99.8325,31.97125 C99.625,31.97125 99.385,31.79375 99.385,31.46625 C99.385,31.13875 99.625,30.93125 99.8325,30.93125 C100.13,30.93125 100.13,30.96125 101.55625,30.96125 L101.55625,23.175 C101.55625,21.54 101.08,20.91625 99.89125,20.91625 C98.05,20.91625 96.11875,23.62 96.11875,26.6225 L96.11875,30.96125 C97.545,30.96125 97.515,30.93125 97.81125,30.93125 C98.05,30.93125 98.2575,31.13875 98.2575,31.46625 C98.2575,31.79375 98.05,31.97125 97.81125,31.97125 C97.515,31.97125 97.545,31.8225 95.1075,31.8225 L94.98875,31.8225 C92.55125,31.8225 92.4025,31.97125 92.105,31.97125 C91.86875,31.97125 91.66125,31.79375 91.66125,31.46625 C91.66125,31.13875 91.86875,30.93125 92.105,30.93125 C92.4025,30.93125 92.55125,30.96125 94.0075,30.96125 L94.0075,21.155 C92.55125,21.155 92.4025,21.24375 92.105,21.24375 C91.86875,21.24375 91.66125,21.03625 91.66125,20.70875 C91.66125,20.3825 91.86875,20.20375 92.105,20.20375 C92.4025,20.20375 92.55125,20.2325 94.0075,20.2325 C94.4825,20.2325 95.37375,20.115 95.6725,20.115 C95.88,20.115 96.11875,20.3225 96.11875,20.64875 L96.11875,23.4125 C96.5925,21.8075 98.345,19.75875 100.18875,19.75875 C102.4175,19.75875 103.46,21.155 103.60625,23.4125 C104.14125,21.68875 105.89375,19.75875 107.7375,19.75875 C110.2625,19.75875 111.21375,21.63 111.21375,24.15625 L111.21375,30.96125 C112.64,30.96125 112.8175,30.93125 113.11625,30.93125 C113.355,30.93125 113.56,31.13875 113.56,31.46625 C113.56,31.79375 113.355,31.97125 113.11625,31.97125 C112.8175,31.97125 112.64,31.8225 110.2325,31.8225 L110.08375,31.8225 C107.67875,31.8225 107.70875,31.97125 107.41,31.97125 C107.17375,31.97125 106.96375,31.79375 106.96375,31.46625 C106.96375,31.13875 107.17375,30.93125 107.41,30.93125 C107.70875,30.93125 107.67875,30.96125 109.105,30.96125 L109.105,23.175 C109.105,21.54 108.62875,20.91625 107.44,20.91625 C105.59625,20.91625 103.6675,23.62 103.6675,26.6225 L103.6675,30.96125 C105.09125,30.96125 105.06125,30.93125 105.36,30.93125" id="Fill-9" fill="#1A1918" sketch:type="MSShapeGroup"></path>
                <path d="M119.81,20.70875 C117.55125,20.70875 116.54125,22.13625 116.54125,26.0575 C116.54125,30.01 117.55125,31.40625 119.81,31.40625 C122.03875,31.40625 123.0475,30.01 123.0475,26.0575 C123.0475,22.13625 122.03875,20.70875 119.81,20.70875 M119.81,32.3875 C116.72,32.3875 114.16375,29.83125 114.16375,26.0575 C114.16375,22.285 116.72,19.75875 119.81,19.75875 C122.86875,19.75875 125.425,22.285 125.425,26.0575 C125.425,29.83125 122.86875,32.3875 119.81,32.3875" id="Fill-10" fill="#1A1918" sketch:type="MSShapeGroup"></path>
                <path d="M135.37375,19.75875 C138.01875,19.75875 139.05875,21.63 139.05875,24.15625 L139.05875,30.96125 C140.48625,30.96125 140.665,30.93 140.96,30.93 C141.17,30.93 141.40625,31.1375 141.40625,31.46625 C141.40625,31.79375 141.17,31.97125 140.96,31.97125 C140.665,31.97125 140.48625,31.8225 138.0475,31.8225 L137.93,31.8225 C135.5225,31.8225 135.345,31.97125 135.0475,31.97125 C134.81,31.97125 134.6025,31.79375 134.6025,31.46625 C134.6025,31.1375 134.81,30.93 135.0475,30.93 C135.345,30.93 135.5225,30.96125 136.94875,30.96125 L136.94875,23.14625 C136.94875,21.54 136.4725,20.8875 135.16625,20.8875 C133.145,20.8875 131.065,23.5025 131.065,26.5025 L131.065,30.96125 C132.49125,30.96125 132.66875,30.93 132.9675,30.93 C133.175,30.93 133.41375,31.1375 133.41375,31.46625 C133.41375,31.79375 133.175,31.97125 132.9675,31.97125 C132.66875,31.97125 132.49125,31.8225 130.05375,31.8225 L129.9375,31.8225 C127.49875,31.8225 127.35125,31.97125 127.05375,31.97125 C126.815,31.97125 126.6075,31.79375 126.6075,31.46625 C126.6075,31.1375 126.815,30.93 127.05375,30.93 C127.35125,30.93 127.49875,30.96125 128.95625,30.96125 L128.95625,21.155 C127.49875,21.155 127.35125,21.24375 127.05375,21.24375 C126.815,21.24375 126.6075,21.03625 126.6075,20.70875 C126.6075,20.3825 126.815,20.20375 127.05375,20.20375 C127.35125,20.20375 127.49875,20.23375 128.95625,20.23375 C129.43125,20.23375 130.3225,20.115 130.61875,20.115 C130.82875,20.115 131.065,20.3225 131.065,20.65 L131.065,23.41375 C131.62875,21.57125 133.3825,19.75875 135.37375,19.75875" id="Fill-11" fill="#1A1918" sketch:type="MSShapeGroup"></path>
                <path d="M148.3775,20.20375 C148.585,20.20375 148.82125,20.3825 148.82125,20.70875 C148.82125,21.03625 148.585,21.215 148.3775,21.215 C148.07875,21.215 146.9225,21.155 145.465,21.155 L145.465,30.09875 C145.465,30.93125 145.7625,31.2875 146.355,31.2875 C147.15875,31.2875 147.545,30.60375 147.605,30.01 C147.66375,29.62375 147.8425,29.44625 148.11125,29.44625 C148.31875,29.44625 148.52625,29.62375 148.52625,29.92125 C148.52625,30.87125 147.69375,32.12 145.82125,32.12 C144.45375,32.12 143.355,31.3475 143.355,29.595 L143.355,21.155 C141.9,21.155 141.51125,21.215 141.21625,21.215 C141.00625,21.215 140.77,21.03625 140.77,20.70875 C140.77,20.3825 141.00625,20.20375 141.21625,20.20375 C143.29625,20.20375 143.91875,19.87625 144.275,17.975 C144.6025,16.34 144.6925,16.0725 145.07875,16.0725 C145.40625,16.0725 145.465,16.4 145.465,16.935 L145.465,20.2325 C146.95125,20.20375 148.14,20.20375 148.3775,20.20375" id="Fill-12" fill="#1A1918" sketch:type="MSShapeGroup"></path>
            </g>
        </g>
    </g>
</svg>

<svg width="149" height="44" viewBox="0 0 149 44" xmlns="http://www.w3.org/2000/svg" xmlns:xlink="http://www.w3.org/1999/xlink"><title>AIGAvt-BLACK</title><defs><path id="a" d="M0 .84h148.822v42.835H0"/></defs><g id="Page-1" fill="none" fill-rule="evenodd"><mask id="b" fill="#fff"><use xlink:href="#a"/></mask><path d="M40.84 27.635h-5.213s-.076-.015-.02-.044c.06-.03 1.738-.566 1.868-.606.254-.087.322-.142.336-.544.008-.386.114-2.658.114-2.794 0-.142.044-.42-.328-.45-.173-.015-.746-.064-1.345-.077-.714-.023-1.456-.006-1.583 0-.402.006-.502.03-.73.206-.178.14-2.684 3.24-2.78 3.37-.1.146-.073.3.188.384.274.08 1.864.408 2.227.48.053.013.042.075-.03.075H28.63c-.052 0-.046-.058-.008-.075.032-.022.686-.258 1.018-.517.17-.108 9.487-10.264 9.65-10.418.05-.04.1-.032.12.01.043.08-.1 9.72-.095 9.872.014.167.025.37.29.498.253.116 1.18.516 1.295.56.054.02.02.07-.06.07m-12.81-.66c-.14.05-1.832.7-3.478.747-4.203.11-5.74-2.827-5.02-5.503.377-1.406 1.302-2.727 2.473-3.65.672-.526 2.664-1.76 5.26-1.76.49 0 1.747.06 2.662.303.45.117.383.364.333.546-.026.09-1.015 3.064-1.044 3.134-.044.113-.135.116-.135-.005-.002-.064.12-2.704.116-2.813-.004-.276-.004-.447-.312-.548-.433-.137-2.502-.317-4.021.39-2.56 1.194-4.046 3.945-3.74 6.14.243 1.807 1.68 3.282 3.966 3.342.724.02 1.247-.084 1.4-.136.234-.067.263-.134.315-.265.047-.135.43-1.75.448-1.817.012-.07.112-.294-.124-.362-.23-.06-2.306-.62-2.414-.65-.108-.027-.06-.082.02-.082h3.894c.158 0 .566-.04.46.348-.115.392-.71 2.252-.756 2.382-.05.132-.16.203-.305.256m-9.795-9.453c-.254.114-.345.25-.412.45-.048.16-2.018 8.464-2.05 8.608-.034.188-.044.348.175.434.224.09 1.345.487 1.433.523.095.038.07.1-.027.1h-4.83c-.093 0-.137-.03-.054-.07.1-.044 1.16-.426 1.266-.466.113-.045.386-.146.463-.39.054-.18 2.08-8.53 2.115-8.69.05-.205.025-.41-.213-.494-.127-.05-1.368-.472-1.412-.487-.07-.023-.07-.07-.006-.07h5.07c.055 0 .107.04.032.06-.074.02-.902.266-.992.29-.102.032-.405.13-.56.2M0 .84v26.724c.028-.01.046-.018.055-.018.034-.018.685-.244 1.02-.503.17-.108 9.485-10.264 9.643-10.418.052-.04.107-.032.132.01.037.08-.105 9.72-.1 9.872.01.167.025.37.29.498.25.116 1.178.516 1.298.56.047.02.014.07-.064.07H7.06s-.076-.015-.02-.044c.06-.03 1.74-.566 1.866-.606.254-.087.326-.142.338-.544.007-.386.114-2.658.114-2.794 0-.142.043-.42-.332-.45-.172-.015-.745-.064-1.343-.077-.713-.023-1.457-.006-1.582 0-.404.006-.5.03-.73.206-.18.14-2.683 3.24-2.78 3.37-.1.146-.07.3.19.384.274.08 1.86.408 2.224.48.052.013.04.075-.034.075H.064c-.01 0-.034 0-.064.004v16.11h42.91V.84H0" fill="#1A1918" mask="url(#b)"/><path d="M6.407 22.7l2.546.006c.357 0 .448-.126.448-.342 0-.145.044-2.797.044-3.098 0-.29-.17-.3-.363-.083-.096.11-2.76 2.974-2.907 3.134-.143.162-.157.378.234.383M37.65 19.183c-.102.112-2.764 2.976-2.91 3.136-.145.16-.156.376.234.38l2.544.006c.352 0 .45-.125.45-.34 0-.146.038-2.797.038-3.1 0-.288-.163-.3-.357-.083M61.904 32.12c-.09.208-.178.297-.534.297-.3 0-.416-.118-.476-.297l-6.508-18.394c-1.367 0-1.635.03-1.932.03-.208 0-.447-.21-.447-.536 0-.296.24-.505.447-.505.297 0 .593.15 3.032.15h.385c2.41 0 2.705-.15 3.004-.15.236 0 .445.21.445.505 0 .327-.21.535-.446.535-.3 0-.595-.03-1.963-.03l5.143 14.8 5.408-14.8h-.177c-1.457 0-1.546.03-1.842.03-.207 0-.445-.208-.445-.535 0-.296.237-.505.446-.505.297 0 .416.15 2.498.15h.147c2.11 0 2.2-.15 2.496-.15.24 0 .446.21.446.505 0 .327-.207.535-.445.535-.295 0-.385-.03-1.722-.03h-.21L61.905 32.12M76.5 23.92c.09-.27.177-.685.177-1.013 0-1.485-1.01-2.197-2.257-2.197-1.426 0-2.734.594-3.18 3.21h5.26zm-5.438 2.14c0 3.563 1.278 5.318 3.418 5.318 1.813 0 3-.892 3.565-2.497.09-.206.207-.474.476-.474.33 0 .478.238.478.445 0 .15-.062.417-.12.564-.982 2.29-3.033 2.974-4.757 2.974-2.583 0-5.436-2.35-5.436-6.33 0-3.774 2.645-6.3 5.47-6.3 3.148 0 5.02 2.348 4.724 5.2H71.09c-.028.328-.028.712-.028 1.1zM88.176 19.76c1.368 0 2.2.77 2.2 1.723 0 .86-.534 1.543-1.337 1.543-.744 0-1.336-.592-1.336-1.336 0-.446.146-.684.356-.89-1.31-.39-3.21 1.098-3.21 5.05v5.11c1.428 0 1.604-.03 1.9-.03.21 0 .448.207.448.536 0 .328-.24.505-.447.505-.296 0-.472-.147-2.91-.147h-.12c-2.438 0-2.584.148-2.882.148-.24 0-.447-.176-.447-.504 0-.33.21-.536.448-.536.298 0 .445.03 1.902.03v-9.805c-1.457 0-1.604.09-1.902.09-.24 0-.447-.21-.447-.536 0-.328.21-.506.448-.506.298 0 .445.03 1.902.03.476 0 1.368-.12 1.663-.12.21 0 .446.21.446.536v1.635c.595-1.606 1.9-2.526 3.326-2.526M105.36 30.93c.236 0 .446.21.446.536 0 .328-.21.505-.446.505-.3 0-.27-.147-2.706-.147h-.117c-2.407 0-2.407.148-2.705.148-.207 0-.447-.176-.447-.504 0-.327.24-.535.447-.535.298 0 .298.03 1.724.03v-7.785c0-1.635-.476-2.26-1.665-2.26-1.84 0-3.77 2.705-3.77 5.707v4.34c1.425 0 1.395-.03 1.69-.03.24 0 .447.207.447.534 0 .328-.207.505-.446.505-.295 0-.265-.147-2.703-.147h-.118c-2.44 0-2.587.148-2.885.148-.236 0-.444-.176-.444-.504 0-.327.21-.535.445-.535.297 0 .446.03 1.902.03v-9.805c-1.456 0-1.605.09-1.902.09-.236 0-.444-.21-.444-.536 0-.328.21-.506.445-.506.297 0 .446.03 1.902.03.475-.002 1.367-.12 1.665-.12.208 0 .447.21.447.535v2.763c.472-1.605 2.225-3.654 4.07-3.654 2.228 0 3.27 1.395 3.416 3.652.535-1.723 2.288-3.653 4.132-3.653 2.525 0 3.476 1.87 3.476 4.396v6.805c1.426 0 1.603-.03 1.902-.03.24 0 .444.21.444.536 0 .328-.205.505-.444.505-.3 0-.476-.147-2.883-.147h-.15c-2.404 0-2.374.148-2.673.148-.236 0-.446-.176-.446-.504 0-.327.21-.535.446-.535.3 0 .27.03 1.695.03v-7.785c0-1.635-.476-2.26-1.665-2.26-1.844 0-3.772 2.705-3.772 5.707v4.34c1.423 0 1.393-.03 1.692-.03M119.81 20.71c-2.26 0-3.27 1.426-3.27 5.348 0 3.952 1.01 5.348 3.27 5.348 2.23 0 3.237-1.396 3.237-5.348 0-3.922-1.008-5.35-3.237-5.35m0 11.68c-3.09 0-5.646-2.557-5.646-6.33s2.556-6.3 5.646-6.3c3.06 0 5.615 2.527 5.615 6.3 0 3.773-2.556 6.33-5.615 6.33M135.374 19.76c2.645 0 3.685 1.87 3.685 4.396v6.805c1.426 0 1.605-.03 1.9-.03.21 0 .446.207.446.536 0 .328-.236.505-.446.505-.295 0-.474-.147-2.912-.147h-.118c-2.407 0-2.585.148-2.882.148-.238 0-.446-.176-.446-.504 0-.33.208-.536.446-.536.297 0 .475.03 1.9.03v-7.814c0-1.606-.476-2.26-1.782-2.26-2.02.002-4.1 2.617-4.1 5.617v4.458c1.425 0 1.603-.03 1.9-.03.21 0 .448.207.448.536 0 .328-.24.505-.446.505-.3 0-.477-.147-2.914-.147h-.117c-2.438 0-2.586.148-2.883.148-.24 0-.447-.176-.447-.504 0-.33.208-.536.447-.536.297 0 .445.03 1.902.03v-9.805c-1.457 0-1.605.09-1.902.09-.24 0-.447-.21-.447-.536 0-.328.208-.506.447-.506.297 0 .445.03 1.902.03.475 0 1.367-.12 1.663-.12.21 0 .445.21.445.536v2.764c.564-1.843 2.317-3.655 4.31-3.655M148.377 20.204c.208 0 .444.178.444.505 0 .326-.235.505-.442.505-.3 0-1.455-.06-2.913-.06V30.1c0 .83.297 1.188.89 1.188.804 0 1.19-.684 1.25-1.278.06-.386.238-.564.506-.564.21 0 .416.178.416.475 0 .95-.832 2.2-2.705 2.2-1.366 0-2.465-.772-2.465-2.525v-8.44c-1.455 0-1.844.06-2.14.06-.21 0-.445-.18-.445-.506 0-.328.236-.506.446-.506 2.08 0 2.703-.328 3.06-2.23.326-1.634.416-1.9.803-1.9.326-.002.385.326.385.86v3.3c1.486-.03 2.675-.03 2.912-.03" fill="#1A1918"/></g></svg>
